img/check.svg

<svg width="17" height="17" viewBox="0 0 17 17" fill="none" xmlns="http://www.w3.org/2000/svg">
<path d="M6.09466 13.8732L1.21966 8.99822C0.92678 8.70533 0.92678 8.23046 1.21966 7.93755L2.2803 6.87689C2.57318 6.58398 3.04808 6.58398 3.34096 6.87689L6.62499 10.1609L13.659 3.12689C13.9519 2.83401 14.4268 2.83401 14.7197 3.12689L15.7803 4.18755C16.0732 4.48043 16.0732 4.95531 15.7803 5.24822L7.15532 13.8732C6.86241 14.1661 6.38754 14.1661 6.09466 13.8732Z" fill="#7D82B7"/>
</svg>

<svg width="17" height="17" fill="none" xmlns="http://www.w3.org/2000/svg"><path d="M6.095 13.873L1.22 8.998a.75.75 0 010-1.06l1.06-1.061a.75.75 0 011.061 0l3.284 3.284 7.034-7.034a.75.75 0 011.06 0l1.061 1.06a.75.75 0 010 1.061l-8.625 8.625a.75.75 0 01-1.06 0z" fill="#7D82B7"/></svg>
